X:555
T:Sweeney's Buttermilk
M:4/4
L:1/8
K:BDor
FBBA FBBc|dcBA BEED|FBBc ABce|afec Baga|
f2 ec fcec|BABc BAFE|FBBc ABce|afec B3 B|
FBBB FBBB|dcBA BEEE|FBBB ABce|afec Baga|
f2 ec fcec|BBBc BAFE|FBBB ABce|afec B3 B||
FBdc BFFD|EAcB AEEA|FBdc Bdfb|afec d2 cd|
Bcde fBBg|afec ABce|fefa bffb|afec B3 B|
FBdc BFFF|EAcB AEEE|FBd(c B/c/d)fb|afec cBBA|
Bcde fBBB|afec ABce|fffa bfff|afec B3 B |>|
